X:377
T: DA DROBEN AUF JENEM BERGE
N: B0452
O: Europa, Mitteleuropa, Deutschland
R: Liebes - Lied, Leid, Klage
M: 6/8
L: 1/16
K: G
D2 | G3GG2G2F2G2 | F4E2D4
D2 | G4G2A2G2A2 | B6z4
Bc | d4d2d2e2d2 | d4c2c4
c2 | B3BB2A2G2A2 | G6z4

@@@ Tune index: 2180
